<?xml version="1.0" encoding="UTF-8"?>
<map version="1.10" tiledversion="1.11.2" orientation="orthogonal" renderorder="right-up" width="20" height="20" tilewidth="16" tileheight="16" infinite="0" nextlayerid="2" nextobjectid="1">
 <tileset firstgid="1" source="../../tiletypes.tsx"/>
 <layer id="1" name="Tile Layer 1" width="20" height="20">
  <data encoding="csv">
3,3,3,3,1,0,0,0,0,12,18,1,1,1,1,1,1,1,1,1,
3,3,3,3,1,26,0,0,0,0,18,0,0,1,1,1,1,1,1,1,
3,3,3,3,1,1,1,0,0,0,18,0,0,0,0,1,1,0,25,1,
3,3,3,3,1,1,0,0,0,0,18,0,0,0,0,0,0,0,1,1,
3,3,3,3,3,3,3,3,3,3,1,1,0,0,0,0,0,0,18,1,
3,3,3,3,3,3,3,3,3,3,3,1,0,0,0,0,0,1,18,1,
3,3,3,3,3,3,3,3,3,3,3,1,1,0,0,0,0,1,18,1,
3,3,3,3,3,3,3,3,3,3,3,3,3,0,0,0,0,0,0,0,
3,3,3,3,3,3,3,3,3,3,3,3,3,0,0,0,0,0,0,1,
3,3,3,3,3,3,3,3,3,3,3,3,3,0,0,0,0,0,1,1,
3,3,3,3,3,3,3,3,3,3,3,3,3,1,0,0,0,0,0,1,
3,3,3,3,3,3,3,3,3,3,3,3,3,1,0,0,0,0,0,0,
3,3,3,3,3,3,3,3,3,3,3,3,3,1,1,18,0,0,0,0,
3,3,3,3,3,3,3,3,3,3,3,3,3,3,0,18,0,0,0,1,
3,3,3,3,3,3,3,3,3,3,3,3,3,3,0,0,0,0,17,1,
3,3,3,3,3,3,3,3,3,3,3,3,3,0,0,0,0,0,0,1,
3,3,3,3,3,3,3,3,3,0,0,0,0,0,0,0,0,0,1,1,
3,3,3,3,3,3,3,3,3,0,0,0,0,0,0,0,0,0,1,1,
3,3,3,3,3,3,3,3,3,0,26,0,0,0,0,0,0,1,1,1,
3,3,3,3,3,3,3,3,3,1,1,1,0,0,11,1,1,1,1,1
</data>
 </layer>
</map>
