<?xml version="1.0" encoding="UTF-8"?>
<map version="1.10" tiledversion="1.11.2" orientation="orthogonal" renderorder="right-up" width="8" height="16" tilewidth="16" tileheight="16" infinite="0" nextlayerid="4" nextobjectid="4">
 <tileset firstgid="1" source="../../tiletypes.tsx"/>
 <layer id="1" name="Tile Layer 1" width="8" height="16">
  <data encoding="csv">
1,1,1,1,1,1,1,1,
0,0,0,0,1,1,1,1,
0,0,0,0,0,0,1,1,
0,0,0,0,0,0,0,1,
0,0,0,0,0,0,0,1,
0,0,0,0,0,0,0,1,
1,1,0,0,0,0,0,1,
1,1,1,1,0,0,0,1,
1,1,0,0,0,0,0,1,
1,0,0,0,0,0,0,1,
0,0,0,0,0,0,1,1,
0,0,0,0,1,1,1,1,
0,0,0,0,0,0,0,0,
0,0,0,0,0,0,0,0,
0,19,0,0,0,0,0,0,
1,1,1,1,1,1,1,1
</data>
 </layer>
 <layer id="2" name="Tile Layer 2" width="8" height="16">
  <data encoding="csv">
0,0,0,0,0,0,0,0,
0,0,0,0,0,0,0,0,
0,0,0,0,0,0,0,0,
0,0,0,0,0,0,0,0,
0,0,0,0,0,0,0,0,
10,0,0,0,0,0,0,0,
0,0,0,0,0,0,0,0,
0,0,0,0,0,0,0,0,
0,0,0,0,0,0,0,0,
0,0,0,0,0,0,0,0,
0,0,0,0,0,0,0,0,
0,0,0,0,0,0,0,0,
0,0,0,0,0,0,0,0,
0,0,0,0,0,0,0,0,
10,0,0,0,0,0,0,9,
0,0,0,0,0,0,0,0
</data>
 </layer>
</map>
