<?xml version="1.0" encoding="UTF-8"?>
<map version="1.10" tiledversion="1.11.2" orientation="orthogonal" renderorder="right-up" width="12" height="12" tilewidth="16" tileheight="16" infinite="0" nextlayerid="2" nextobjectid="1">
 <tileset firstgid="1" source="../../tiletypes.tsx"/>
 <layer id="1" name="Tile Layer 1" width="12" height="12">
  <data encoding="csv">
1,1,1,1,1,1,1,1,1,0,12,1,
1,1,1,0,0,0,0,0,0,0,0,1,
1,1,1,0,0,0,0,0,0,0,0,1,
1,0,0,0,0,0,0,2,0,0,1,1,
1,0,0,0,0,1,1,1,1,1,1,1,
1,0,0,0,0,0,0,0,0,1,1,1,
1,0,0,0,0,0,0,0,0,1,1,1,
1,1,1,0,0,0,0,0,0,0,0,1,
1,1,1,1,1,1,1,0,0,0,0,1,
1,0,0,0,0,0,0,0,0,0,0,1,
1,0,0,0,0,0,0,0,0,0,0,1,
0,0,0,11,0,0,25,1,1,1,1,1
</data>
 </layer>
</map>
